ix/gallery-slash_bold.svg

<svg viewBox="0 0 24 24" fill="none" xmlns="http://www.w3.org/2000/svg" height="1em" width="1em">
  <path d="M21.7689 2.22891C21.4689 1.92891 20.9789 1.92891 20.6789 2.22891L2.22891 20.6889C1.92891 20.9889 1.92891 21.4789 2.22891 21.7789C2.37891 21.9189 2.56891 21.9989 2.76891 21.9989C2.96891 21.9989 3.15891 21.9189 3.30891 21.7689L21.7689 3.30891C22.0789 3.00891 22.0789 2.52891 21.7689 2.22891Z" fill="#292D32"/>
  <path d="M9.00109 10.3811C10.3155 10.3811 11.3811 9.31553 11.3811 8.00109C11.3811 6.68666 10.3155 5.62109 9.00109 5.62109C7.68666 5.62109 6.62109 6.68666 6.62109 8.00109C6.62109 9.31553 7.68666 10.3811 9.00109 10.3811Z" fill="#292D32"/>
  <path d="M21.6084 5.39062L20.3884 6.61063C20.4684 6.98063 20.4984 7.38063 20.4984 7.81063V12.6106L20.3684 12.5006C19.5884 11.8306 18.3284 11.8306 17.5484 12.5006L13.3884 16.0706C12.6784 16.6806 11.5584 16.7406 10.7784 16.2206L5.39844 21.6006C5.43844 21.6206 5.47844 21.6306 5.51844 21.6406C5.78844 21.7306 6.05844 21.8006 6.34844 21.8606C6.44844 21.8806 6.54844 21.9006 6.65844 21.9106C7.02844 21.9606 7.40844 22.0006 7.80844 22.0006H16.1884C19.8284 22.0006 21.9984 19.8306 21.9984 16.1906V7.81063C21.9984 6.91063 21.8684 6.10062 21.6084 5.39062Z" fill="#292D32"/>
  <path d="M21.6106 5.39062L20.3906 6.61063C20.4706 6.98063 20.5006 7.38063 20.5006 7.81063V12.6106L20.3706 12.5006C19.5906 11.8306 18.3306 11.8306 17.5506 12.5006L13.3906 16.0706C12.6806 16.6806 11.5606 16.7406 10.7806 16.2206L5.39062 21.6106C6.10062 21.8706 6.91063 22.0006 7.81063 22.0006H16.1906C19.8306 22.0006 22.0006 19.8306 22.0006 16.1906V7.81063C22.0006 6.91063 21.8706 6.10062 21.6106 5.39062Z" fill="#292D32"/>
  <path d="M20.46 3.54L19.4 4.6C18.68 3.87 17.6 3.5 16.19 3.5H7.81C4.99 3.5 3.5 4.99 3.5 7.81V16.19C3.5 16.95 3.63 17.6 3.85 18.16L7.59 15.65C7.93 15.42 8.32 15.3 8.71 15.29L3.54 20.46C3.14 20.06 2.81 19.58 2.56 19.03C2.19 18.23 2 17.28 2 16.19V7.81C2 4.17 4.17 2 7.81 2H16.19C18.01 2 19.46 2.54 20.46 3.54Z" fill="#292D32"/>
</svg>

<svg viewBox="0 0 24 24" fill="none" xmlns="http://www.w3.org/2000/svg" height="1em" width="1em">
  <path d="M21.769 2.229c-.3-.3-.79-.3-1.09 0l-18.45 18.46c-.3.3-.3.79 0 1.09a.758.758 0 0 0 1.08-.01l18.46-18.46c.31-.3.31-.78 0-1.08ZM9.001 10.381a2.38 2.38 0 1 0 0-4.76 2.38 2.38 0 0 0 0 4.76ZM21.608 5.39l-1.22 1.22c.08.37.11.77.11 1.2v4.8l-.13-.11c-.78-.67-2.04-.67-2.82 0l-4.16 3.57c-.71.61-1.83.67-2.61.15l-5.38 5.38c.04.02.08.03.12.04.27.09.54.16.83.22.1.02.2.04.31.05.37.05.75.09 1.15.09h8.38c3.64 0 5.81-2.17 5.81-5.81V7.81c0-.9-.13-1.71-.39-2.42Z" fill="#292D32"/>
  <path d="m21.61 5.39-1.22 1.22c.08.37.11.77.11 1.2v4.8l-.13-.11c-.78-.67-2.04-.67-2.82 0l-4.16 3.57c-.71.61-1.83.67-2.61.15l-5.39 5.39c.71.26 1.52.39 2.42.39h8.38c3.64 0 5.81-2.17 5.81-5.81V7.81c0-.9-.13-1.71-.39-2.42Zm-1.15-1.85L19.4 4.6c-.72-.73-1.8-1.1-3.21-1.1H7.81C4.99 3.5 3.5 4.99 3.5 7.81v8.38c0 .76.13 1.41.35 1.97l3.74-2.51c.34-.23.73-.35 1.12-.36l-5.17 5.17c-.4-.4-.73-.88-.98-1.43-.37-.8-.56-1.75-.56-2.84V7.81C2 4.17 4.17 2 7.81 2h8.38c1.82 0 3.27.54 4.27 1.54Z" fill="#292D32"/>
</svg>
